packages/tokens/icons/targetMiss/size24Px.svg

<svg viewBox="0 0 24 24" fill="none" xmlns="http://www.w3.org/2000/svg" width="1em" height="1em"><path fill-rule="evenodd" clip-rule="evenodd" d="M11 4C6.58174 4 3.00002 7.58172 3.00002 12C3.00002 16.4183 6.58174 20 11 20C15.4183 20 19 16.4183 19 12C19 11.0641 18.8395 10.1667 18.5449 9.33329C18.4529 9.07293 18.5894 8.78727 18.8497 8.69525C19.1101 8.60322 19.3957 8.73969 19.4878 9.00004C19.8196 9.93902 20 10.949 20 12C20 16.9706 15.9706 21 11 21C6.02945 21 2.00002 16.9706 2.00002 12C2.00002 7.02944 6.02945 3 11 3C12.436 3 13.7947 3.33665 15.0003 3.93579C15.2476 4.05868 15.3484 4.35877 15.2255 4.60606C15.1027 4.85335 14.8026 4.9542 14.5553 4.8313C13.4849 4.29935 12.2781 4 11 4ZM11 16C13.2092 16 15 14.2091 15 12C15 9.79086 13.2092 8 11 8C8.79088 8 7.00002 9.79086 7.00002 12C7.00002 14.2091 8.79088 16 11 16ZM11 17C13.7614 17 16 14.7614 16 12C16 9.23858 13.7614 7 11 7C8.23859 7 6.00002 9.23858 6.00002 12C6.00002 14.7614 8.23859 17 11 17ZM12 12C12 12.5523 11.5523 13 11 13C10.4477 13 10 12.5523 10 12C10 11.4477 10.4477 11 11 11C11.5523 11 12 11.4477 12 12ZM13 12C13 13.1046 12.1046 14 11 14C9.89545 14 9.00002 13.1046 9.00002 12C9.00002 10.8954 9.89545 10 11 10C12.1046 10 13 10.8954 13 12Z" fill="currentColor"/><path fill-rule="evenodd" clip-rule="evenodd" d="M20.1781 4.8993L20.6536 5.12454L19.1248 6.6533L18.1652 6.19873L17.7106 5.23908L19.2393 3.71033L19.4646 4.18582C19.6129 4.4989 19.865 4.751 20.1781 4.8993ZM19.0339 2.50152C19.2784 2.25703 19.6913 2.32855 19.8394 2.64103L20.3683 3.75774C20.4178 3.8621 20.5018 3.94613 20.6061 3.99556L21.7229 4.52453C22.0353 4.67255 22.1069 5.08546 21.8624 5.32995L19.5828 7.60956C19.4333 7.75898 19.2061 7.79833 19.0152 7.70787L17.894 7.17682L17.7679 7.30301L16.7677 8.30313C16.5725 8.49839 16.2559 8.49839 16.0606 8.30313C15.8654 8.10787 15.8654 7.79129 16.0606 7.59602L17.0608 6.5959L17.187 6.46967L16.656 5.34873C16.5656 5.15776 16.6049 4.93055 16.7543 4.78113L19.0339 2.50152Z" fill="currentColor"/></svg>

<svg xmlns="http://www.w3.org/2000/svg" fill="none" viewBox="0 0 24 24" width="1em" height="1em"><path fill="currentColor" fill-rule="evenodd" d="M11 4a8 8 0 1 0 7.545 5.333.5.5 0 0 1 .943-.333c.332.939.512 1.949.512 3a9 9 0 1 1-5-8.064.5.5 0 0 1-.445.895A7.965 7.965 0 0 0 11 4Zm0 12a4 4 0 1 0 0-8 4 4 0 0 0 0 8Zm0 1a5 5 0 1 0 0-10 5 5 0 0 0 0 10Zm1-5a1 1 0 1 1-2 0 1 1 0 0 1 2 0Zm1 0a2 2 0 1 1-4 0 2 2 0 0 1 4 0Z" clip-rule="evenodd"/><path fill="currentColor" fill-rule="evenodd" d="m20.178 4.9.476.225-1.53 1.528-.959-.454-.454-.96 1.528-1.529.226.476c.148.313.4.565.713.713Zm-1.144-2.398a.5.5 0 0 1 .805.139l.53 1.117a.5.5 0 0 0 .237.238l1.117.529a.5.5 0 0 1 .14.805l-2.28 2.28a.5.5 0 0 1-.568.098l-1.121-.531-.126.126-1 1a.5.5 0 1 1-.707-.707l1-1 .126-.126-.531-1.121a.5.5 0 0 1 .098-.568l2.28-2.28Z" clip-rule="evenodd"/></svg>
